svgs/duotone/pallet-box.svg

<svg xmlns="http://www.w3.org/2000/svg" viewBox="0 0 640 512"><!-- Font Awesome Pro 6.0.0-alpha2 by @fontawesome - https://fontawesome.com License - https://fontawesome.com/license (Commercial License) --><defs><style>.fa-secondary{opacity:.4}</style></defs><path d="M624 384C632.75 384 640 376.75 640 368V336C640 327.25 632.75 320 624 320H16C7.25 320 0 327.25 0 336V368C0 376.75 7.25 384 16 384H64V448H16C7.25 448 0 455.25 0 464V496C0 504.75 7.25 512 16 512H624C632.75 512 640 504.75 640 496V464C640 455.25 632.75 448 624 448H576V384H624ZM288 448H128V384H288V448ZM512 448H352V384H512V448ZM384 0V128L320 96L256 128V0H384Z" class="fa-secondary"/><path d="M160 256H480C497.6 256 512 241.6 512 224V32C512 14.4 497.6 0 480 0H384V128L320 96L256 128V0H160C142.4 0 128 14.4 128 32V224C128 241.6 142.4 256 160 256Z" class="fa-primary"/></svg>

<svg xmlns="http://www.w3.org/2000/svg" viewBox="0 0 640 512"><!--! Font Awesome Pro 6.3.0 by @fontawesome - https://fontawesome.com License - https://fontawesome.com/license (Commercial License) Copyright 2023 Fonticons, Inc. --><defs><style>.fa-secondary{opacity:.4}</style></defs><path class="fa-primary" d="M160 255.1h320c17.6 0 32-14.4 32-31.1V31.1c0-17.6-14.4-32-32-32l-96 0v128l-64-32l-64 32v-128L160 0c-17.6 0-32 14.4-32 32V224C128 241.6 142.4 255.1 160 255.1z"/><path class="fa-secondary" d="M624 384c8.75 0 16-7.25 16-16v-32c0-8.75-7.25-16-16-16h-608C7.25 320 0 327.3 0 336v32C0 376.8 7.25 384 16 384H64v64H16C7.25 448 0 455.3 0 464v32C0 504.8 7.25 512 16 512h608c8.75 0 16-7.25 16-16v-32c0-8.75-7.25-16-16-16H576v-64H624zM288 448H128v-64h160V448zM512 448h-160v-64h160V448zM384 0v128l-64-32l-64 32v-128H384z"/></svg>
